html/assets/images/dynamic/Masdar Free Zone/youtube.svg

<svg xmlns="http://www.w3.org/2000/svg" width="18" height="17"
                                            viewBox="0 0 18 17" fill="none">
                                            <path
                                                d="M1.5332 12.9162V4.67322C1.5332 3.96638 2.02698 3.35559 2.71813 3.20748C6.85896 2.32016 11.1408 2.32016 15.2816 3.20748C15.9728 3.35559 16.4665 3.96638 16.4665 4.67322V12.9162C16.4665 13.6231 15.9728 14.2339 15.2816 14.382C11.1408 15.2693 6.85896 15.2693 2.71813 14.382C2.02698 14.2339 1.5332 13.6231 1.5332 12.9162Z"
                                                stroke="white" stroke-width="1.5" stroke-linejoin="round" />
                                            <path d="M7.9332 10.9281V6.66139L11.1332 8.79473L7.9332 10.9281Z"
                                                stroke="white" stroke-width="1.5" stroke-linejoin="round" />
                                        </svg>

<svg xmlns="http://www.w3.org/2000/svg" width="18" height="17" fill="none"><path d="M1.533 12.916V4.673a1.5 1.5 0 011.185-1.466 29.98 29.98 0 0112.564 0 1.499 1.499 0 011.184 1.466v8.243c0 .707-.493 1.318-1.184 1.466a29.98 29.98 0 01-12.564 0 1.499 1.499 0 01-1.185-1.466z" stroke="#fff" stroke-width="1.5" stroke-linejoin="round"/><path d="M7.933 10.928V6.661l3.2 2.134-3.2 2.133z" stroke="#fff" stroke-width="1.5" stroke-linejoin="round"/></svg>
